img/icons/icon_basket.svg

<svg width="21" height="20" viewBox="0 0 21 20" fill="none" xmlns="http://www.w3.org/2000/svg">
<path d="M7.03359 20C8.14664 20 9.04894 19.1046 9.04894 18C9.04894 16.8954 8.14664 16 7.03359 16C5.92054 16 5.01823 16.8954 5.01823 18C5.01823 19.1046 5.92054 20 7.03359 20Z" fill="#343434"/>
<path d="M16.1027 20C17.2157 20 18.118 19.1046 18.118 18C18.118 16.8954 17.2157 16 16.1027 16C14.9896 16 14.0873 16.8954 14.0873 18C14.0873 19.1046 14.9896 20 16.1027 20Z" fill="#343434"/>
<path d="M5.70345 2L5.46161 0H0V2H3.66795L5.17946 15H19.2869L21 2H5.70345ZM17.5034 13H6.97313L5.96545 4H18.6924L17.5034 13Z" fill="#343434"/>
<path d="M5.93506 4.03003L6.97297 13H17.5032L18.6923 4.03003H5.93506Z" fill="#E84D37"/>
</svg>

<svg width="21" height="20" fill="none" xmlns="http://www.w3.org/2000/svg"><path d="M7.03 20a2 2 0 002.02-2 2 2 0 00-2.02-2 2 2 0 00-2.01 2c0 1.1.9 2 2.01 2zM16.1 20a2 2 0 002.02-2 2 2 0 00-2.02-2 2 2 0 00-2.01 2c0 1.1.9 2 2.01 2zM5.7 2l-.24-2H0v2h3.67l1.5 13H19.3L21 2H5.7zm11.8 11H6.97l-1-9h12.72l-1.19 9z" fill="#343434"/></svg>
